X:1
T:Title
%%score { ( 1 3 ) | ( 2 4 ) }
L:1/8
Q:1/4=100
M:4/4
K:E
V:1 treble nm="Grand Piano"
V:3 treble 
V:2 bass 
V:4 bass 
V:1
 G2 B2 c2 B2 | EG[GB][GB] [Ac]2 [GB]2 | c2 BB AAGG | z4 [DB]4 | B2 cB [Ge]2 [EB]2 | %5
w: D.~B.~Towner * * *|||||
 [DB][DA][DA][DG] [DG]2 F2 | E2 G[GB] [Ge][Ee][Ec][CEA] | [B,EG]2 [A,DF]2 [G,E]4 | %8
w: |||
 [DB]2 [E^A][F=A] G3 F | EG[GB]B c2 B2 | [DB]2 [EB][FA] G3 B | cBGE [DF]4 | E2 GF E3 G | %13
w: |||||
 BB=dd c2 c2 | [Ad]2 [Ac][AB] [Ge][Ee][Ec][CEA] | [B,EG]2 [A,DF]2 [G,E]4 |] %16
w: |||
V:2
 [E,E]2 [E,G,E]2 [E,A,E]2 [E,G,E]2 | [E,G,][E,B,E][E,E][E,E] [E,E]2 [E,E]2 | %2
 [A,E]2 [G,B,E][G,B,E] [F,B,D][F,B,D][E,B,E][E,B,E] | [F,B,D]2 [F,^A,E]2 B,2 z2 | %4
 [E,G,E]2 [E,A,E][E,G,E] [E,B,]2 [E,G,]2 | [B,,F,][B,,F,][B,,F,][B,,B,] [B,,B,]2 [A,B,D]2 | %6
 [G,B,]2 [E,B,E][E,B,] [E,B,][E,G,][A,,A,]A,, | B,,2 B,,2 E,4 | %8
 [B,,F,]2 [C,F,][D,B,] [E,B,E]3 [A,C] | [G,B,][E,B,E][E,B,][E,G,E] [E,A,E]2 [E,G,E]2 | %10
 [B,,F,]2 [C,F,][D,B,] [E,B,E]3 [E,G,E] | [E,A,E][E,G,E][E,B,E][C,^A,] [B,,=A,]4 | %12
 [E,G,]2 [E,B,E][A,B,D] [G,B,]3 [E,B,E] | [E,G,E][E,G,E][G,B,E][G,B,E] [A,E]2 [A,E]2 | %14
 [F,B,]2 [F,B,][F,B,] [E,B,][E,G,][A,,A,]A,, | B,,2 B,,2 E,4 |] %16
V:3
 x8 | x8 | x8 | F2 c2 z2 A,2 | x8 | x8 | x8 | x8 | x8 | x8 | x8 | x8 | x8 | x8 | x8 | x8 |] %16
V:4
 x8 | x8 | x8 | z4 B,,4 | x8 | x8 | x8 | x8 | x8 | x8 | x8 | x8 | x8 | x8 | x8 | x8 |] %16

